contributed-vectors/zwart.svg

<?xml version="1.0" encoding="UTF-8" standalone="no"?>
<svg
   xmlns:dc="http://purl.org/dc/elements/1.1/"
   xmlns:cc="http://creativecommons.org/ns#"
   xmlns:rdf="http://www.w3.org/1999/02/22-rdf-syntax-ns#"
   xmlns:svg="http://www.w3.org/2000/svg"
   xmlns="http://www.w3.org/2000/svg"
   xmlns:sodipodi="http://sodipodi.sourceforge.net/DTD/sodipodi-0.dtd"
   xmlns:inkscape="http://www.inkscape.org/namespaces/inkscape"
   viewBox="0 0 192 192"
   version="1.1"
   id="svg16"
   sodipodi:docname="zwart.svg"
   inkscape:version="0.92.4 (5da689c313, 2019-01-14)">
  <metadata
     id="metadata20">
    <rdf:RDF>
      <cc:Work
         rdf:about="">
        <dc:format>image/svg+xml</dc:format>
        <dc:type
           rdf:resource="http://purl.org/dc/dcmitype/StillImage" />
        <dc:title></dc:title>
      </cc:Work>
    </rdf:RDF>
  </metadata>
  <sodipodi:namedview
     pagecolor="#ffffff"
     bordercolor="#666666"
     borderopacity="1"
     objecttolerance="10"
     gridtolerance="10"
     guidetolerance="10"
     inkscape:pageopacity="0"
     inkscape:pageshadow="2"
     inkscape:window-width="1920"
     inkscape:window-height="1017"
     id="namedview18"
     showgrid="true"
     inkscape:zoom="4.9166667"
     inkscape:cx="75.59722"
     inkscape:cy="99.018859"
     inkscape:window-x="-8"
     inkscape:window-y="-8"
     inkscape:window-maximized="1"
     inkscape:current-layer="svg16">
    <inkscape:grid
       type="xygrid"
       id="grid827"
       spacingx="4"
       spacingy="4" />
  </sodipodi:namedview>
  <defs
     id="defs4">
    <style
       id="style2">.a{fill:none;stroke:#b1b5bd;stroke-linecap:round;stroke-linejoin:round;isolation:isolate;opacity:0.63;}</style>
  </defs>
  <path
     style="fill:#56595b;fill-opacity:1;stroke-width:11.77560043;stroke-linecap:square"
     d="M 96 8 C 93.823401 8 91.646338 8.8341306 89.978516 10.501953 L 10.501953 89.980469 C 7.1663081 93.316114 7.1663081 98.685839 10.501953 102.02148 L 89.978516 181.5 C 93.314161 184.83565 98.685839 184.83565 102.02148 181.5 L 127.52148 156 L 132 140 L 151.51953 132 L 181.49805 102.02148 C 184.83369 98.685839 184.83369 93.316114 181.49805 89.980469 L 158.35547 66.837891 L 128 52 L 127.51953 36 L 102.02148 10.501953 C 100.35366 8.8341306 98.176599 8 96 8 z "
     id="rect923" />
  <path
     style="fill:#ffffff"
     d="M 96 36 C 88 36 88 44 88 44 L 88 60 L 128 60 L 80 136 C 80 136 76 140 76 144 L 76 152 C 76 152 76 156 80 156 L 127.52148 156 L 151.51953 132 L 116 132 L 158.35547 66.837891 L 127.51953 36 L 96 36 z "
     id="path829" />
  <style
     id="style853"
     type="text/css">
	.st0{fill:#FFFFFF;}
</style>
  <style
     id="style853-9"
     type="text/css">
	.st0{fill:#FFFFFF;}
</style>
  <style
     id="style853-3"
     type="text/css">
	.st0{fill:#FFFFFF;}
</style>
</svg>

<svg xmlns="http://www.w3.org/2000/svg" id="svg16" version="1.1" viewBox="0 0 192 192"><defs id="defs4"><style id="style2">.a{fill:none;stroke:#b1b5bd;stroke-linecap:round;stroke-linejoin:round;isolation:isolate;opacity:.63}.st0{fill:#fff}</style></defs><path id="rect923" d="M96 8a8.49 8.49 0 0 0-6.021 2.502L10.502 89.98a8.495 8.495 0 0 0 0 12.041L89.979 181.5a8.497 8.497 0 0 0 12.042 0l25.5-25.5L132 140l19.52-8 29.978-29.979a8.495 8.495 0 0 0 0-12.04l-23.143-23.143L128 52l-.48-16-25.499-25.498A8.49 8.49 0 0 0 96 8z" style="fill:#56595b;fill-opacity:1;stroke-width:11.77560043;stroke-linecap:square"/><path id="path829" d="M96 36c-8 0-8 8-8 8v16h40l-48 76s-4 4-4 8v8s0 4 4 4h47.521l23.999-24H116l42.355-65.162L127.52 36H96z" style="fill:#fff"/></svg>
